X:1
P:The Banshee
M:4/4
L:1/8
R: reel
O:Trad. (26.11.2014/NS)
K:Gmaj
|:"G"G2 GD EDB,D|GFGB d2 Bd|"G"e2ed "Em"BAGA|1,3 "C"BAGE "D"EDDE:|2,4 "C"BAGE "D"EDD2||
|:"Am"eaag efge|"Em"dBBA B2 Bd|eB ~B2 Bgfg|eBBA B2 Bd|
"Am"eaag efge|"Em"dBBA B2 Bd|"G"e2ed "Em"BAGA|1 "C"BAGE "D"EDD2:|2 "C"BAGE "D"EDDE||
